X:1
T:Harbridge, 88.86
T:Harbridge, 88.86
T:Samuel Sebastian Wesley, 1872
T:Public Domain Courtesy of the Cyber Hymnal™
C:Samuel Sebastian Wesley, 1872
Z:Public Domain
Z:Courtesy of the Cyber Hymnal™
%%score 1 2 ( 3 4 ) ( 5 6 )
L:1/8
Q:1/4=103
M:4/4
K:F
V:1 treble 
V:2 treble 
V:3 treble-8 
V:4 treble-8 
V:5 bass 
V:6 bass 
V:1
 C2 | E2 F2 E2 F2 | G2 G2 E2 E2 | F2 G2 C2 D2 | D2 D2 D2 C2 | C2 C2 C2 C2 | F2 F2 F2 F2 | %7
 E2 F2 F2 E2 | C6 |] %9
V:2
 c2 | c2 A2 B2 c2 | d2 d2 e2 ^c2 | A2 =c2 c2 (BG) | G2 ^F2 G2 G2 | F2 E2 F2 G2 | F2 F2 B2 c2 | %7
 c2 c2 c2 c2 | A6 |] %9
V:3
 A2 | [EG]2 F2 [EB]2 [FA]2 | G2 G2 =c2 [EA]2 | [Fd]2 cB A2 [DG]2 | [DA]2 [DA]2 [DB]2 [CE]2 | %5
 [CF]2 [CG]2 [CA]2 [CG]2 | [FB]2 [FA]2 [Fd]2 [Fc]2 | [EB]2 [FA]2 [FG]2 [EG]2 | F6 |] %9
V:4
 x2 | x8 | G2 x6 | x2 G2 x4 | x8 | x8 | x8 | x8 | x6 |] %9
V:5
 [F,C]2 | [C,C]2 [D,A,]2 [G,,B,]2 [A,,C]2 | [B,,D]2 [B,D]2 [A,E]2 [A,^C]2 | %3
 [D,A,]2 [E,=C]2 [F,C]2 (B,G,) | [D,G,]2 [D,^F,]2 [G,,G,]2 [C,G,]2 | [A,,F,]2 [C,E,]2 F,2 [E,G,]2 | %6
 [D,F,]2 [C,F,]2 [B,,B,]2 [A,,C]2 | [G,,C]2 [F,,C]2 [C,C]2 z B, | [F,A,]6 |] %9
V:6
 x2 | x8 | x8 | x6 B,,2 | x8 | x4 F,2 x2 | x8 | x6 [C,C]2 | x6 |] %9

